X:1
T:Title
%%score { 1 | 2 }
L:1/8
M:4/4
K:Eb
V:1 treble nm="Grand Piano"
V:2 bass 
V:1
 z4 z2 z[Q:1/4=100] [GB] | [GB][GB][GB][Ac] [GB] [EG]2 [GB] | ccAc [GB]3 [GB] | %3
 [Ge][Ge][Bd][Ac] [GB] G2 G | GFFG [B,DF]3 [DAB] | [GB][GB][GB][Ac] [GB] [EG]2 [GB] | %6
 ccAc [GB]3 [GB] | BBBc G2 [DF]2 | [B,E]6 z2 | [GB]3 [EG] [GB]4 | e3 c e3 c | %11
 [GB][GB][GB][Ac] [GB][B,EG][=A,EF][A,EG] |[M:3/4] [B,DF]6 |[M:1/4] [DAB]2 | %14
[M:4/4] [EGB]3 [B,EG] [EGB]4 | e3 c e3 c | BBBc G2 [DF]2 |[M:7/8] [B,E]-[B,E]-[B,E]- [B,E]3 z |] %18
V:2
 z4 z2 z [E,E] | [E,E][E,E][E,E][E,E] [E,E] [E,B,]2 [E,E] | %2
 [A,EA][A,EA][A,CE][A,EA][K:bass] [E,E]3 [E,E] | [E,B,][E,B,][E,C][E,D] [E,E] [E,B,E]2 [E,B,E] | %4
 [F,=A,E][F,A,E][F,A,E][F,A,E] B,,3 B,, | [E,E][E,E][E,E][E,E] [E,E] [E,B,]2 [E,E] | %6
 [A,EA][A,EA][A,CE][A,EA][K:bass] [E,E]3 [E,E] | [G,EG][G,EG][B,EG][B,EG] [B,E]2[K:bass] [B,,A,]2 | %8
 [E,G,]6 z2 | [E,E]3 [E,B,] [E,E]4 | [A,CA]3 [A,EA] [A,CA]3 [A,EA] | %11
 [E,E][E,E][E,E][E,E] [E,E]E,F,F, |[M:3/4] B,,6 |[M:1/4] B,,2 |[M:4/4] E,3 E, E,4 | %15
 [A,CA]3 [A,EA] [A,CA]3 [A,EA] | [B,EG][B,EG][B,EG][B,EG][K:bass] [B,E]2 [B,,A,]2 | %17
[M:7/8] [E,G,]-[E,G,]-[E,G,]- [E,G,]3 z |] %18

